X:1
T:Craig Coynach
T:Craig Coynach
T:Alexander Walker
C:Alexander Walker
L:1/8
M:4/4
K:C
V:1 treble 
V:1
 G | E<AA>B c>BA>c | B<Gd>G e>cd>B | E<AA>B c>Bc>d | e<gd<g B<A A :| G | A<aa>g b>a a2 | %7
 d<gg>a b>agd | e2 d>e g>ab>a | g>d (e/d/)c/B/ (A2 A)G | A<aa>g b>a a2 | d<gg>a b>agd | %12
 e<gd>e g>ab>a | g>edB A/A/A A2 || %14

